X:1
T: Bliven's Favourite Jig
C:
R:Jig
Q:180
K:G
M:6/8
L:1/16
|:GF|D2G2G2 G2A2B2|c2A2G2 F2G2A2|B2A2B2 c2A2F2|A2G2G2 G4F2|
D2G2G2 G2A2B2|c2A2G2 F2G2A2|B2A2B2 c2A2F2|A2G2G2 G4:|
|:d2|d2e2f2 g4g2|=f2e2d2 c2A2=F2|G2g2f2 g2a2g2|f2d2d2 d4e2|
=f2e2f2 f2e2d2|c2d2_B2 A2B2c2|d2_e2d2 d4c2|_B2G2G2 G4:|
